X: 40428
T: Tom Mhic's
R: polka
M: 2/4
K: Gmajor
|:F/E/|DE FG|AG F/G/F/E/|DE FG|A2 A/B/A/F/|
DE FG|AG F/G/F/E/|DE FA|G2 G:|
|:B|dB AG|B2 A2|DE FG|A2 AB|
dB AG|B2 A2|DE FA|G2 G:|

